assets/bank-tab/Asset/Consumer Loan Club.svg

<svg width="24" height="24" viewBox="0 0 24 24" fill="none" xmlns="http://www.w3.org/2000/svg">
<g clip-path="url(#clip0_5371_1143)">
<path fill-rule="evenodd" clip-rule="evenodd" d="M9.32569 1.8866C9.12867 1.68378 9.12867 1.35494 9.32569 1.15212C9.52271 0.949295 9.84214 0.949295 10.0392 1.15212L11.9959 3.16647C12.0011 3.16648 12.0062 3.16648 12.0114 3.16649L13.9593 1.16125C14.1563 0.958425 14.4757 0.958425 14.6728 1.16125C14.8698 1.36407 14.8698 1.69291 14.6728 1.89573L13.4241 3.18113C14.3257 3.19866 15.237 3.23182 16.1794 3.28028C18.9965 3.42513 20.4051 3.49756 21.4597 4.4479C22.5143 5.39825 22.7309 6.78245 23.1643 9.55086C23.4568 11.4198 23.6653 13.1628 23.811 14.9785C24.0869 18.4141 24.2248 20.132 23.0962 21.4066C21.9677 22.6813 20.2016 22.7544 16.6694 22.9005C13.4692 23.0328 10.561 23.0332 7.35508 22.9013C3.81123 22.7554 2.03928 22.6824 0.91078 21.4109C-0.217724 20.1393 -0.0825967 18.4087 0.187658 14.9476C0.329643 13.1292 0.533172 11.3749 0.826507 9.49251C1.25239 6.75956 1.46532 5.39308 2.52048 4.4418C3.57564 3.49053 4.96966 3.41918 7.75771 3.2765C8.72635 3.22693 9.65979 3.19428 10.5803 3.17819L9.32569 1.8866ZM5.70817 6.87515C4.90284 7.59106 4.7513 8.56436 4.44823 10.511C4.42295 10.6733 4.39905 10.8348 4.37644 10.9958C4.01954 13.5373 3.84108 14.8081 4.70858 15.8333C5.57608 16.8585 6.94811 16.8951 9.69216 16.9685C11.2694 17.0106 12.7602 17.0104 14.3355 16.968C17.0649 16.8944 18.4296 16.8576 19.2971 15.8295C20.1645 14.8015 19.9843 13.5423 19.6239 11.024C19.6016 10.8684 19.5781 10.7124 19.5534 10.5555C19.2421 8.57955 19.0864 7.59154 18.282 6.87743C17.4775 6.16332 16.4304 6.12417 14.3364 6.04587C12.7295 5.98578 11.2408 5.98409 9.62 6.04414C7.549 6.12087 6.51349 6.15924 5.70817 6.87515ZM20.0678 19.7857C20.0678 20.3594 19.6161 20.8244 19.0588 20.8244C18.5016 20.8244 18.0498 20.3594 18.0498 19.7857C18.0498 19.212 18.5016 18.747 19.0588 18.747C19.6161 18.747 20.0678 19.212 20.0678 19.7857Z" fill="#8F242A"/>
</g>
<defs>
<clipPath id="clip0_5371_1143">
<rect width="24" height="24" fill="white"/>
</clipPath>
</defs>
</svg>

<svg xmlns="http://www.w3.org/2000/svg" width="24" height="24" fill="none" viewBox="0 0 24 24"><g clip-path="url(#a)"><path fill="#8f242a" fill-rule="evenodd" d="M9.326 1.887a.53.53 0 0 1 0-.735.494.494 0 0 1 .713 0l1.957 2.014h.015l1.948-2.005a.494.494 0 0 1 .714 0 .53.53 0 0 1 0 .735L13.424 3.18c.902.018 1.813.05 2.755.1 2.818.144 4.226.217 5.28 1.167s1.272 2.334 1.705 5.103c.293 1.869.501 3.612.647 5.428.276 3.435.414 5.153-.715 6.428-1.128 1.274-2.894 1.347-6.427 1.494-3.2.132-6.108.132-9.314 0-3.544-.146-5.316-.219-6.444-1.49-1.129-1.272-.994-3.002-.723-6.463.142-1.819.345-3.573.639-5.455.425-2.733.638-4.1 1.693-5.051s2.45-1.023 5.238-1.166c.968-.05 1.902-.082 2.822-.098zM5.708 6.875c-.805.716-.957 1.69-1.26 3.636l-.072.485c-.356 2.541-.535 3.812.333 4.837.867 1.025 2.24 1.062 4.983 1.135 1.577.043 3.068.042 4.643 0 2.73-.074 4.095-.11 4.962-1.139.867-1.027.687-2.287.327-4.805l-.07-.468c-.312-1.976-.468-2.964-1.272-3.679-.805-.714-1.852-.753-3.946-.831a62 62 0 0 0-4.716-.002c-2.071.077-3.107.115-3.912.831m14.36 12.91c0 .574-.452 1.04-1.01 1.04-.556 0-1.008-.466-1.008-1.04 0-.573.452-1.038 1.009-1.038s1.009.465 1.009 1.039" clip-rule="evenodd"/></g><defs><clipPath id="a"><path fill="#fff" d="M0 0h24v24H0z"/></clipPath></defs></svg>
